X: 1439
T: Four-Step Schottische
B: australian traditional tunes wiki
M:4/4
L:1/8
R: Schottische
Q: 1/4=100
K:D
V:1 
A>G|"D"(3FDD D>B (3AFF d2|F<A A>Fd2d2|"A7"c<EE2c<EE2|c<E E>c"D"A2 A>G|
"D"F>D D>B A>d d>D|F>A A>Fd2F>A|"G"B2"D"A2"Em"G>F E>d|"A7"c>A B>c"D"d2:|
% abcbook-tune_id 6342d53a7c29df1c2f9cce5b


% abcbook-boost 0
% abcbook-tablature 
% abcbook-transpose 
% abcbook-lastupdated 1665324365127
% abcbook-soundfonts 
% abcbook-repeats 1
% NFF Book 2020

